build/category/WatcherSolid.svg

<svg xmlns="http://www.w3.org/2000/svg" fill="none" viewBox="0 0 24 24" focusable="false"><path d="M0 0H24V24H0z"/><path fill="#74767B" fill-rule="evenodd" d="M4 7C4 5.34315 5.34315 4 7 4L17 4C18.6569 4 20 5.34315 20 7L20 13.8442C20 14.0669 19.7651 14.2131 19.5585 14.1298C18.9061 13.8664 18.1682 13.6998 17.3449 13.6998C17.1963 13.6998 17.0505 13.7053 16.9075 13.7157L17.8479 12.4164C18.0268 12.1693 18.0247 11.8214 17.843 11.5768L16.1006 9.23243C15.8847 8.94188 15.492 8.89583 15.2236 9.12957C14.9552 9.36331 14.9126 9.78834 15.1286 10.0789L16.5605 12.0055L14.975 14.1959C13.6658 14.7679 12.7177 15.7241 12.1299 16.4624C11.4152 17.3601 11.2411 18.5188 11.5953 19.5443C11.6691 19.7577 11.5215 20 11.2957 20L7 20C5.34315 20 4 18.6569 4 17L4 7ZM8.77939 9.12989C9.04765 9.36384 9.08991 9.78891 8.87377 10.0793L7.44412 12L8.87377 13.9207C9.08991 14.2111 9.04765 14.6362 8.77939 14.8701C8.51112 15.1041 8.11843 15.0583 7.90229 14.768L6.15733 12.4236C5.97327 12.1763 5.97327 11.8237 6.15733 11.5764L7.90229 9.23205C8.11843 8.94167 8.51112 8.89593 8.77939 9.12989ZM13.2774 9.82731C13.3734 9.4814 13.1708 9.12316 12.8249 9.02716C12.479 8.93116 12.1207 9.13375 12.0247 9.47966L10.7223 14.1727C10.6263 14.5186 10.8289 14.8768 11.1748 14.9728C11.5207 15.0688 11.879 14.8662 11.975 14.5203L13.2774 9.82731ZM21.5453 17.2666C22.128 17.9944 22.1211 19.0015 21.5344 19.726C20.7173 20.735 19.3026 22 17.345 22C15.3839 22 13.9713 20.7305 13.1579 19.7206C12.5763 18.9985 12.5695 17.9975 13.147 17.2721C13.9502 16.2634 15.3537 14.9998 17.345 14.9998C19.3327 14.9998 20.7385 16.2588 21.5453 17.2666ZM19.3503 18.4999C19.3503 19.6045 18.4549 20.5 17.3503 20.5C16.2457 20.5 15.3502 19.6045 15.3502 18.4999C15.3502 17.3953 16.2457 16.4999 17.3503 16.4999C18.4549 16.4999 19.3503 17.3953 19.3503 18.4999Z"/></svg>

<svg xmlns="http://www.w3.org/2000/svg" fill="none" viewBox="0 0 24 24" focusable="false"><path fill="#74767B" fill-rule="evenodd" d="M4 7c0-1.66 1.34-3 3-3h10c1.65 0 3 1.34 3 3v6.84c0 .22-.24.37-.45.28-.65-.26-1.39-.43-2.21-.43-.15 0-.29.01-.44.02l.94-1.3a.72.72 0 0 0 0-.84L16.1 9.23c-.22-.29-.61-.34-.88-.11a.72.72 0 0 0-.1.95L16.56 12l-1.59 2.19c-1.31.57-2.26 1.53-2.85 2.27-.71.9-.88 2.05-.53 3.08.07.21-.07.46-.3.46H7c-1.66 0-3-1.35-3-3zm4.77 2.12c.27.24.31.66.1.95L7.44 12l1.43 1.92c.21.29.17.71-.1.95-.26.23-.66.18-.87-.11l-1.75-2.34a.74.74 0 0 1 0-.85L7.9 9.23c.21-.29.61-.34.87-.11m4.5.7c.1-.34-.1-.7-.45-.8-.35-.09-.7.11-.8.45l-1.3 4.7c-.1.34.1.7.45.8.35.09.7-.11.8-.45zm8.26 9.9c.59-.72.59-1.73.01-2.46-.81-1.01-2.21-2.27-4.2-2.27s-3.39 1.27-4.2 2.28c-.58.72-.57 1.72.01 2.45.82 1.01 2.23 2.28 4.19 2.28s3.37-1.27 4.19-2.28m-4.18.78a2.006 2.006 0 0 0 0-4.01 2 2 0 0 0-2 2c0 1.11.89 2.01 2 2.01"/></svg>
